X:269
T: ADJE MEIN LIEBCHEN
N: E1411
O: Europa, Mitteleuropa, Deutschland, Frankfurt a.d. Oder, Seelow
R: Staende -, Soldaten - Lied, Krieg, Abschied
M: 4/4
L: 1/4
K: F
c | ccBG | FAA
A | GBBB | dcc
c | ccBG | FAA
A | GcBE | F2z
c | c2B2 | FAAA |
GBBB | dcc
d | c2B2 | FAAA |
GcBE | F2z

@@@ Tune index: 4953
